myer.svg

<?xml version="1.0" encoding="UTF-8" standalone="no"?>
<!DOCTYPE svg PUBLIC "-//W3C//DTD SVG 1.1//EN" "http://www.w3.org/Graphics/SVG/1.1/DTD/svg11.dtd">
<!-- Created with Vectornator (http://vectornator.io/) -->
<svg stroke-miterlimit="10" style="fill-rule:nonzero;clip-rule:evenodd;stroke-linecap:round;stroke-linejoin:round;" version="1.1" viewBox="0 0 68.04 68.04" xml:space="preserve" xmlns="http://www.w3.org/2000/svg" xmlns:xlink="http://www.w3.org/1999/xlink">
<defs/>
<clipPath id="ArtboardFrame">
<rect height="68.04" width="68.04" x="0" y="0"/>
</clipPath>
<g clip-path="url(#ArtboardFrame)" id="Untitled">
<g opacity="1">
<path d="M-1.42109e-14 40.8875L68.04 40.8875L68.04 42.5751L-1.42109e-14 42.5751L-1.42109e-14 40.8875Z" fill="#000000" fill-rule="nonzero" opacity="1" stroke="none"/>
<path d="M31.0671 25.4651L27.9987 29.5306L24.5469 25.4651L17.4131 25.4651L23.3194 32.4455L23.3194 36.1275L29.5329 36.1275L29.5329 32.6756L34.9792 25.4652L31.0671 25.4652L31.0671 25.4651Z" fill="#000000" fill-rule="nonzero" opacity="1" stroke="none"/>
<path d="M35.8253 25.4651L35.8253 36.1274L50.0929 36.1274L50.0929 33.9029L41.425 33.9029L41.425 31.9085L49.1725 31.9085L49.1725 29.6839L41.425 29.6839L41.425 27.6128L50.0929 27.6128L50.0929 25.4649L35.8253 25.4649L35.8253 25.4651Z" fill="#000000" fill-rule="nonzero" opacity="1" stroke="none"/>
<path d="M10.8955 25.4651L8.44081 30.2977L5.98616 25.4651L0.0798321 25.4651L0.0798321 36.1274L1.53729 36.1274L1.53729 29.147L5.14255 36.1274L8.28759 36.1274L11.3559 29.147L11.3559 36.1274L16.8023 36.1274L16.8023 25.4651L10.896 25.4651L10.8955 25.4651Z" fill="#000000" fill-rule="nonzero" opacity="1" stroke="none"/>
<path d="M67.9629 28.4588C67.9629 26.3877 66.1219 25.4672 63.8207 25.4672L52.468 25.4672L52.468 36.1295L58.0676 36.1295L58.0676 31.9873L61.4428 36.1295L67.9628 36.1295L64.2809 31.5269C66.352 31.3734 67.9628 30.2995 67.9628 28.4585L67.9629 28.4588ZM60.4454 29.3793L58.0674 29.3793L58.0674 27.6151L60.4454 27.6151C61.1358 27.6151 61.7494 27.9219 61.7494 28.5355C61.7494 29.0725 61.1358 29.3793 60.4454 29.3793Z" fill="#000000" fill-rule="nonzero" opacity="1" stroke="none"/>
</g>
</g>
</svg>

<svg stroke-miterlimit="10" style="fill-rule:nonzero;clip-rule:evenodd;stroke-linecap:round;stroke-linejoin:round" viewBox="0 0 68.04 68.04" xml:space="preserve" xmlns="http://www.w3.org/2000/svg"><clipPath id="a"><path d="M0 0h68.04v68.04H0z"/></clipPath><g clip-path="url(#a)"><path d="M0 40.888h68.04v1.687H0v-1.688ZM31.067 25.465 28 29.531l-3.452-4.066h-7.134l5.906 6.98v3.682h6.214v-3.451l5.446-7.21h-3.912ZM35.825 25.465v10.662h14.268v-2.224h-8.668v-1.994h7.748v-2.225h-7.748v-2.071h8.668v-2.148H35.825ZM10.896 25.465 8.44 30.298l-2.455-4.833H.08v10.662h1.457v-6.98l3.606 6.98h3.145l3.068-6.98v6.98h5.446V25.465h-5.906ZM67.963 28.459c0-2.071-1.841-2.992-4.142-2.992H52.468V36.13h5.6v-4.143l3.375 4.143h6.52l-3.682-4.603c2.071-.154 3.682-1.228 3.682-3.069Zm-7.518.92h-2.378v-1.764h2.378c.69 0 1.304.307 1.304.92 0 .538-.613.844-1.304.844Z"/></g></svg>
